img/logos/Microsoft/CnE_Cloud/SVG/Azure Service Fabric.svg

<?xml version="1.0" encoding="UTF-8" standalone="no"?>
<!-- Generated by Microsoft Visio, SVG Export Service Fabric.svg Page-1 -->

<svg
   xmlns:v="http://schemas.microsoft.com/visio/2003/SVGExtensions/"
   xmlns:dc="http://purl.org/dc/elements/1.1/"
   xmlns:cc="http://creativecommons.org/ns#"
   xmlns:rdf="http://www.w3.org/1999/02/22-rdf-syntax-ns#"
   xmlns:svg="http://www.w3.org/2000/svg"
   xmlns="http://www.w3.org/2000/svg"
   xmlns:sodipodi="http://sodipodi.sourceforge.net/DTD/sodipodi-0.dtd"
   xmlns:inkscape="http://www.inkscape.org/namespaces/inkscape"
   width="0.43000001in"
   height="0.43000001in"
   viewBox="0 0 30.960023 30.959984"
   xml:space="preserve"
   class="st2"
   version="1.1"
   id="svg601"
   sodipodi:docname="Azure Service Fabric.svg"
   style="font-size:12px;overflow:visible;color-interpolation-filters:sRGB;fill:none;fill-rule:evenodd;stroke-linecap:square;stroke-miterlimit:3"
   inkscape:version="0.92.3 (2405546, 2018-03-11)"><metadata
   id="metadata607"><rdf:RDF><cc:Work
       rdf:about=""><dc:format>image/svg+xml</dc:format><dc:type
         rdf:resource="http://purl.org/dc/dcmitype/StillImage" /><dc:title></dc:title></cc:Work></rdf:RDF></metadata><defs
   id="defs605" /><sodipodi:namedview
   pagecolor="#ffffff"
   bordercolor="#666666"
   borderopacity="1"
   objecttolerance="10"
   gridtolerance="10"
   guidetolerance="10"
   inkscape:pageopacity="0"
   inkscape:pageshadow="2"
   inkscape:window-width="3840"
   inkscape:window-height="2004"
   id="namedview603"
   showgrid="false"
   inkscape:zoom="38.191284"
   inkscape:cx="29.921794"
   inkscape:cy="16.070413"
   inkscape:window-x="-16"
   inkscape:window-y="2864"
   inkscape:window-maximized="1"
   inkscape:current-layer="svg601" />
	<v:documentProperties
   v:langID="1033"
   v:viewMarkup="false">
		<v:userDefs>
			<v:ud
   v:nameU="visTLShowProps"
   v:prompt=""
   v:val="VT0(0):26" />
		</v:userDefs>
	</v:documentProperties>

	<style
   type="text/css"
   id="style590">
	<![CDATA[
		.st1 {fill:#0078d7;stroke:none;stroke-linecap:butt;stroke-width:0.75}
		.st2 {fill:none;fill-rule:evenodd;font-size:12px;overflow:visible;stroke-linecap:square;stroke-miterlimit:3}
	]]>
	</style>

	<g
   v:mID="0"
   v:index="1"
   v:groupContext="foregroundPage"
   id="g599"
   transform="translate(-6.665898,-2.7602383)">
		<title
   id="title592">Page-1</title>
		<v:pageProperties
   v:drawingScale="1"
   v:pageScale="1"
   v:drawingUnits="19"
   v:shadowOffsetX="2.83465"
   v:shadowOffsetY="-2.83465"
   v:shadowType="1" />
		<g
   id="shape1078-1"
   v:mID="1078"
   v:groupContext="shape"
   transform="translate(7.13721,-31.5)">
			<title
   id="title594">Service Fabric</title>
			<path
   d="m 29.93,47.39 c 0,-2.59 -2.1,-4.68 -4.68,-4.68 -0.95,0 -1.84,0.29 -2.58,0.78 l -3.24,-2.68 c 0.14,-0.44 0.21,-0.9 0.21,-1.37 0,-2.59 -2.09,-4.68 -4.68,-4.68 -2.58,0 -4.67,2.09 -4.67,4.68 0,0.47 0.07,0.93 0.2,1.36 L 7.01,43.69 C 6.33,43.36 5.53,43.18 4.68,43.18 2.09,43.18 0,44.8 0,47.39 c 0,2.3 1.66,4.21 3.85,4.59 l 1.26,4.51 C 4.13,57.35 3.5,58.6 3.5,60.01 c 0,2.58 2.1,4.68 4.68,4.68 2.01,0 3.71,-1.27 4.38,-3.05 h 4.81 c 0.66,1.78 2.37,3.05 4.37,3.05 2.59,0 4.68,-2.1 4.68,-4.68 0,-1.46 -0.67,-2.77 -1.72,-3.62 L 25.99,52 c 2.23,-0.36 3.94,-2.28 3.94,-4.61 z m -8.19,7.95 c -2.26,0 -4.14,1.6 -4.58,3.73 h -4.4 c -0.44,-2.13 -2.32,-3.73 -4.58,-3.73 -0.24,0 -0.48,0.02 -0.71,0.05 L 6.45,51.71 c 1.7,-0.7 2.9,-2.37 2.9,-4.32 0,-0.72 -0.16,-1.36 -0.45,-1.92 l 3.01,-2.5 c 0.82,0.71 1.88,1.14 3.05,1.14 1.17,0 2.24,-0.43 3.06,-1.14 L 21,45.45 c -0.27,0.59 -0.42,1.24 -0.42,1.93 0,1.93 1.16,3.58 2.82,4.3 l -1.09,3.69 c -0.18,-0.02 -0.37,-0.03 -0.57,-0.03 z"
   class="st1"
   id="path596"
   inkscape:connector-curvature="0"
   style="fill:#0078d7;stroke:none;stroke-width:0.75;stroke-linecap:butt" />
		</g>
	</g>
</svg>

<?xml version="1.0" encoding="UTF-8" standalone="no"?>
<!DOCTYPE svg PUBLIC "-//W3C//DTD SVG 1.1//EN" "http://www.w3.org/Graphics/SVG/1.1/DTD/svg11.dtd">
<!-- Generated by Microsoft Visio, SVG Export Service Fabric.svg Page-1 -->
<svg xmlns="http://www.w3.org/2000/svg" xmlns:xlink="http://www.w3.org/1999/xlink" xmlns:ev="http://www.w3.org/2001/xml-events"
		xmlns:v="http://schemas.microsoft.com/visio/2003/SVGExtensions/" width="0.626594in" height="0.898438in"
		viewBox="0 0 45.1148 64.6875" xml:space="preserve" color-interpolation-filters="sRGB" class="st2">
	<v:documentProperties v:langID="1033" v:viewMarkup="false">
		<v:userDefs>
			<v:ud v:nameU="visTLShowProps" v:prompt="" v:val="VT0(0):26"/>
		</v:userDefs>
	</v:documentProperties>

	<style type="text/css">
	<![CDATA[
		.st1 {fill:#0078d7;stroke:none;stroke-linecap:butt;stroke-width:0.75}
		.st2 {fill:none;fill-rule:evenodd;font-size:12px;overflow:visible;stroke-linecap:square;stroke-miterlimit:3}
	]]>
	</style>

	<g v:mID="0" v:index="1" v:groupContext="foregroundPage">
		<title>Page-1</title>
		<v:pageProperties v:drawingScale="1" v:pageScale="1" v:drawingUnits="19" v:shadowOffsetX="2.83465"
				v:shadowOffsetY="-2.83465" v:shadowType="1"/>
		<g id="shape1078-1" v:mID="1078" v:groupContext="shape" transform="translate(7.13721,-31.5)">
			<title>Service Fabric</title>
			<path d="M29.93 47.39 C29.93 44.8 27.83 42.71 25.25 42.71 C24.3 42.71 23.41 43 22.67 43.49 L19.43 40.81 C19.57 40.37
						 19.64 39.91 19.64 39.44 C19.64 36.85 17.55 34.76 14.96 34.76 C12.38 34.76 10.29 36.85 10.29 39.44 C10.29
						 39.91 10.36 40.37 10.49 40.8 L7.01 43.69 C6.33 43.36 5.53 43.18 4.68 43.18 C2.09 43.18 0 44.8 0 47.39 C0
						 49.69 1.66 51.6 3.85 51.98 L5.11 56.49 C4.13 57.35 3.5 58.6 3.5 60.01 C3.5 62.59 5.6 64.69 8.18 64.69 C10.19
						 64.69 11.89 63.42 12.56 61.64 L17.37 61.64 C18.03 63.42 19.74 64.69 21.74 64.69 C24.33 64.69 26.42 62.59
						 26.42 60.01 C26.42 58.55 25.75 57.24 24.7 56.39 L25.99 52 C28.22 51.64 29.93 49.72 29.93 47.39 ZM21.74 55.34
						 C19.48 55.34 17.6 56.94 17.16 59.07 L12.76 59.07 C12.32 56.94 10.44 55.34 8.18 55.34 C7.94 55.34 7.7 55.36
						 7.47 55.39 L6.45 51.71 C8.15 51.01 9.35 49.34 9.35 47.39 C9.35 46.67 9.19 46.03 8.9 45.47 L11.91 42.97 C12.73
						 43.68 13.79 44.11 14.96 44.11 C16.13 44.11 17.2 43.68 18.02 42.97 L21 45.45 C20.73 46.04 20.58 46.69 20.58
						 47.38 C20.58 49.31 21.74 50.96 23.4 51.68 L22.31 55.37 C22.13 55.35 21.94 55.34 21.74 55.34 Z" class="st1"/>
		</g>
	</g>
</svg>
